www/assets/icons/rocket_launch.svg

<svg width="24" height="24" viewBox="0 0 24 24" xmlns="http://www.w3.org/2000/svg" fill='currentColor'><path d="M9.43512 6.10731C7.39512 8.39731 5.99512 11.6873 5.86512 11.9973L2.24512 10.4473L6.29512 6.39731C6.76512 5.92731 7.44512 5.71731 8.10512 5.84731L9.43512 6.10731ZM11.4151 16.7573C11.4151 16.7573 15.1551 15.2073 17.3051 13.0573C22.7051 7.65731 21.8051 3.43731 21.5151 2.48731C20.5651 2.18731 16.3451 1.29731 10.9451 6.69731C8.79512 8.84731 7.24512 12.5873 7.24512 12.5873L11.4151 16.7573ZM17.8951 14.5673C15.6051 16.6073 12.3151 18.0073 12.0051 18.1373L13.5551 21.7573L17.6051 17.7073C18.0751 17.2373 18.2851 16.5573 18.1551 15.8973L17.8951 14.5673ZM9.24512 17.7573C9.24512 18.5873 8.90512 19.3373 8.36512 19.8773C7.18512 21.0573 2.24512 21.7573 2.24512 21.7573C2.24512 21.7573 2.94512 16.8173 4.12512 15.6373C4.66512 15.0973 5.41512 14.7573 6.24512 14.7573C7.90512 14.7573 9.24512 16.0973 9.24512 17.7573ZM13.2451 8.75731C13.2451 7.65731 14.1451 6.75731 15.2451 6.75731C16.3451 6.75731 17.2451 7.65731 17.2451 8.75731C17.2451 9.85731 16.3451 10.7573 15.2451 10.7573C14.1451 10.7573 13.2451 9.85731 13.2451 8.75731Z"/></svg>

<svg xmlns="http://www.w3.org/2000/svg" width="24" height="24" viewBox="0 0 24 24" fill='currentColor'><path d="M9.435 6.107c-2.04 2.29-3.44 5.58-3.57 5.89l-3.62-1.55 4.05-4.05c.47-.47 1.15-.68 1.81-.55zm1.98 10.65s3.74-1.55 5.89-3.7c5.4-5.4 4.5-9.62 4.21-10.57-.95-.3-5.17-1.19-10.57 4.21-2.15 2.15-3.7 5.89-3.7 5.89zm6.48-2.19c-2.29 2.04-5.58 3.44-5.89 3.57l1.55 3.62 4.05-4.05c.47-.47.68-1.15.55-1.81zm-8.65 3.19c0 .83-.34 1.58-.88 2.12-1.18 1.18-6.12 1.88-6.12 1.88s.7-4.94 1.88-6.12a2.996 2.996 0 0 1 5.12 2.12m4-9c0-1.1.9-2 2-2s2 .9 2 2-.9 2-2 2-2-.9-2-2"/></svg>
